X: 3368
M: 2/4
L: 1/16
K: G
(GA) |\
|: (Bc) |\
d3ed2B2 | g2f2e2d2 | d3e edcB | B2A2A2 (Bc) |\
d2B2c2d2 | e2f2g3e | d2G2d2B2 | AGAB G2 :|


